src/4-icons/alert.svg

<svg width="260" height="260" viewBox="0 0 260 260" fill="none" xmlns="http://www.w3.org/2000/svg">
<path d="M129 168C132.866 168 136 164.866 136 161V115C136 111.134 132.866 108 129 108C125.134 108 122 111.134 122 115V161C122 164.866 125.134 168 129 168Z" fill="black"/>
<path d="M136 185C136 188.866 132.866 192 129 192C125.134 192 122 188.866 122 185C122 181.134 125.134 178 129 178C132.866 178 136 181.134 136 185Z" fill="black"/>
<path fill-rule="evenodd" clip-rule="evenodd" d="M137.881 32.6498C133.962 26.4636 124.943 26.4486 121.003 32.6216L3.58789 216.619C-0.659988 223.276 4.12113 231.998 12.0177 231.998H245.985C253.867 231.998 258.651 223.305 254.433 216.647L137.881 32.6498ZM237.217 217.039L129.464 47.2758L21.7102 217.039H237.217Z" fill="black"/>
</svg>

<svg width="260" height="260" viewBox="0 0 260 260" fill="none" xmlns="http://www.w3.org/2000/svg"><path d="M129 168a7 7 0 0 0 7-7v-46a7 7 0 1 0-14 0v46a7 7 0 0 0 7 7Zm7 17a7 7 0 1 1-14 0 7 7 0 0 1 14 0Z" fill="#000"/><path fill-rule="evenodd" clip-rule="evenodd" d="M137.881 32.65c-3.919-6.186-12.938-6.201-16.878-.028L3.588 216.619c-4.248 6.657.533 15.379 8.43 15.379h233.967c7.882 0 12.666-8.693 8.448-15.351L137.881 32.65Zm99.336 184.389L129.464 47.276 21.71 217.039h215.507Z" fill="#000"/></svg>
